resources/icons/16px/add-location.svg

<?xml version="1.0" encoding="UTF-8"?>
<svg width="16px" height="16px" viewBox="0 0 16 16" version="1.1" xmlns="http://www.w3.org/2000/svg" xmlns:xlink="http://www.w3.org/1999/xlink">
    <g stroke="none" stroke-width="1" fill="none" fill-rule="evenodd">
        <path d="M8,0 C8.55228475,0 9,0.44771525 9,1 C9,1.55228475 8.55228475,2 8,2 C4.6862915,2 2,4.6862915 2,8 C2,11.3137085 4.6862915,14 8,14 C11.3137085,14 14,11.3137085 14,8 C14,7.44771525 14.4477153,7 15,7 C15.5522847,7 16,7.44771525 16,8 C16,12.418278 12.418278,16 8,16 C3.581722,16 0,12.418278 0,8 C0,3.581722 3.581722,0 8,0 Z M8,5 C9.65685425,5 11,6.34314575 11,8 C11,9.65685425 9.65685425,11 8,11 C6.34314575,11 5,9.65685425 5,8 C5,6.34314575 6.34314575,5 8,5 Z M13,0 C13.5522847,-1.01453063e-16 14,0.44771525 14,1 L14,1.999 L15,2 C15.5522847,2 16,2.44771525 16,3 C16,3.55228475 15.5522847,4 15,4 L14,4 L14,5 C14,5.55228475 13.5522847,6 13,6 C12.4477153,6 12,5.55228475 12,5 L12,4 L11,4 C10.4477153,4 10,3.55228475 10,3 C10,2.44771525 10.4477153,2 11,2 L12,2 L12,1 C12,0.44771525 12.4477153,1.01453063e-16 13,0 Z" fill="#000000"></path>
    </g>
</svg>

<svg xmlns="http://www.w3.org/2000/svg" viewBox="0 0 16 16">
  <path d="M8 0a1 1 0 1 1 0 2 6 6 0 1 0 6 6 1 1 0 0 1 2 0 8 8 0 1 1-8-8m0 5a3 3 0 1 1 0 6 3 3 0 0 1 0-6m5-5a1 1 0 0 1 1 1v.999L15 2a1 1 0 0 1 0 2h-1v1a1 1 0 0 1-2 0V4h-1a1 1 0 0 1 0-2h1V1a1 1 0 0 1 1-1"/>
</svg>
